logo-bonobos.svg

<?xml version="1.0" encoding="UTF-8" standalone="no"?>
<svg width="188px" height="30px" viewBox="0 0 188 30" version="1.1" xmlns="http://www.w3.org/2000/svg" xmlns:xlink="http://www.w3.org/1999/xlink" xmlns:sketch="http://www.bohemiancoding.com/sketch/ns">
    <!-- Generator: Sketch 3.0.2 (7799) - http://www.bohemiancoding.com/sketch -->
    <title>Slice 1</title>
    <description>Created with Sketch.</description>
    <defs></defs>
    <g id="Page-1" stroke="none" stroke-width="1" fill="none" fill-rule="evenodd" sketch:type="MSPage">
        <path d="M80.736887,29.2639331 L80.736887,0.230523013 L74.9199866,0.230523013 L74.9199866,16.6301046 L74.9199866,18.1068828 L58.8477209,0.218221757 L56.0855525,0.218221757 L56.0855525,29.2672594 L61.9019483,29.2672594 L61.9019483,11.4972176 L77.8469467,29.2639331 L80.736887,29.2639331 Z M108.684749,4.41119247 C106.017999,1.73654812 102.293758,0.114225941 98.1212425,0.105251046 L98.1126655,0.109016736 L98.0699067,0.105251046 C93.8679396,0.106192469 90.1242107,1.72895397 87.4437128,4.41169456 C84.764161,7.09205021 83.1420382,10.8337657 83.1420382,15.0300628 L83.1420382,15.0343305 L83.1420382,15.0498954 L83.1420382,15.0522803 C83.1420382,19.2646444 84.759368,23.0153347 87.4418209,25.7027824 C90.1237692,28.3911715 93.8708407,30.0139331 98.0727447,30.0139331 L98.0765287,30.0139331 L98.0917276,30.0139331 C102.276099,30.0120502 106.01226,28.3892887 108.684686,25.6999582 C111.362346,23.0177197 112.982072,19.2646444 112.984468,15.0522803 C112.984468,15.0522803 112.984468,15.0522803 112.984468,15.0428033 L112.984468,15.0428033 C112.984468,15.0428033 112.984468,15.0428033 112.984468,15.0314435 C112.982135,10.83659 111.362409,7.09205021 108.684749,4.41119247 L108.684749,4.41119247 L108.684749,4.41119247 Z M106.991866,15.0470711 C106.991866,17.6286402 105.965213,20.0580753 104.331738,21.8339121 C102.694921,23.6121339 100.473608,24.7146025 98.0793667,24.7146025 C95.6286817,24.713159 93.402575,23.6093096 91.7723797,21.8339121 C90.141743,20.0594561 89.1326857,17.6286402 89.1312352,15.0451255 L89.1312352,15.0427406 C89.1331271,15.0427406 89.1331271,15.0427406 89.1331271,15.0403556 L89.1312352,15.0403556 C89.1507226,9.35692469 93.1370668,5.41387029 98.0798081,5.40445607 L98.0798081,5.63083682 L98.0798081,5.40445607 C102.916157,5.41104603 106.979,9.36307531 106.992307,15.0427406 L106.99237,15.0470711 L106.991866,15.0470711 L106.991866,15.0470711 Z M164.44734,4.41169456 C161.773905,1.73228033 158.043042,0.110460251 153.865797,0.105251046 L153.85867,0.106192469 L153.830669,0.105251046 C149.626368,0.106192469 145.882135,1.7298954 143.202078,4.41119247 C140.524419,7.0901046 138.90608,10.8256695 138.900404,15.016318 L138.902296,15.0309414 L138.900404,15.0559833 C138.902296,19.2660251 140.521518,23.0176569 143.20397,25.7022176 C145.883522,28.3891632 149.627756,30.0114854 153.835903,30.0133682 L153.8383,30.0133682 L153.847318,30.0133682 C158.033141,30.0114854 161.772076,28.3887238 164.446961,25.7022176 C167.122729,23.0143305 168.742014,19.2640795 168.742014,15.0493305 L168.742014,15.0446234 L168.742014,15.0337657 C168.742392,10.83659 167.123171,7.09393305 164.44734,4.41169456 L164.44734,4.41169456 L164.44734,4.41169456 Z M162.752123,15.0522803 C162.752123,17.6300837 161.724525,20.0580753 160.091555,21.8344142 C158.452341,23.6098117 156.232919,24.7151046 153.841075,24.7151046 C151.386101,24.7136611 149.161445,23.6098117 147.529358,21.8344142 C145.903956,20.0599582 144.892502,17.6329079 144.890168,15.0522803 C144.892565,15.0522803 144.890168,15.0498954 144.890168,15.0409205 C144.909656,9.35748954 148.895559,5.41537657 153.841075,5.40313808 C158.673135,5.41167364 162.738375,9.36269874 162.752123,15.0428033 L162.752123,15.0522803 L162.752123,15.0522803 L162.752123,15.0522803 Z M182.818869,13.4942259 L182.921919,13.2915063 L182.818869,13.4942259 L178.188115,11.1550418 C177.699984,10.9149791 177.058476,10.6149163 176.535658,10.0955649 C176.029489,9.58707113 175.615398,8.89763598 175.608271,7.70774059 C175.615398,6.72577406 175.967748,6.13694561 176.510494,5.71970711 C177.070837,5.29537657 177.916553,5.05669456 178.894266,5.05625523 C178.894266,5.05625523 178.905177,5.05437238 178.905177,5.05625523 C178.911799,5.05625523 178.920376,5.05437238 178.929899,5.05437238 C180.654062,5.05675732 182.384911,5.61106695 183.521677,6.65824268 L184.214458,7.29621339 L187.212683,2.76866109 L186.537939,2.3282636 C183.928643,0.606715481 182.043471,0.00420502092 179.09942,0 C179.037237,0 178.974549,0 178.90997,0.000941422594 C176.350054,0.000941422594 174.087369,0.753702929 172.445822,2.14920502 C170.810456,3.5290795 169.827949,5.5658159 169.827949,7.92953975 L169.827949,7.94416318 L169.827949,7.9540795 L169.827949,7.96399582 L169.827949,7.98288703 C169.827949,9.92554393 170.377822,11.550251 171.349355,12.8506695 C172.325177,14.1620084 173.68608,15.1425941 175.278751,15.9620084 L180.248043,18.5393096 C181.039648,18.9310669 182.189217,20.180523 182.211542,21.5651046 C182.211542,21.5920293 182.211542,21.6185146 182.208704,21.6435565 C182.20492,22.6402092 181.88013,23.3206695 181.340221,23.7955858 C180.792745,24.2723849 179.945137,24.5753347 178.800739,24.5753347 C176.739866,24.5559414 175.483463,24.3679079 173.002317,22.5669665 L172.369323,22.1015272 L169.114672,26.2902929 L169.760468,26.7798326 C173.024138,29.2758577 175.710817,29.7645188 178.296841,29.7673431 L178.453561,29.7673431 L178.475886,29.7673431 C181.593306,29.7673431 184.012647,28.7655439 185.624301,27.1781799 C187.238792,25.5908787 188.025605,23.4562971 188.025605,21.2991213 L188.025605,21.2991213 L188.025605,21.2787866 L188.025605,21.2683682 C188.023208,17.2732845 185.406344,14.7952092 182.818869,13.4942259 L182.818869,13.4942259 L182.818869,13.4942259 Z M131.638533,14.4360251 L130.738202,14.3405649 L131.566323,14.0352929 C134.066388,13.0854603 135.74546,10.7373013 135.74546,7.8665272 C135.736883,3.00200837 131.784721,0.119435146 125.547106,0.0986610879 L115.389115,0.0986610879 L115.389115,29.5077615 L126.536235,29.5077615 C133.233033,29.4836611 137.303444,26.4857322 137.311517,21.2900209 C137.316751,17.982113 134.792973,14.9279498 131.638533,14.4360251 L131.638533,14.4360251 L131.638533,14.4360251 Z M121.431161,5.08368201 L124.927987,5.08368201 C126.416662,5.08462343 127.619899,5.27410042 128.487941,5.83029289 C129.364055,6.38698745 129.836546,7.33587866 129.826519,8.64577406 C129.833645,9.93207113 129.408201,10.9537657 128.555359,11.6143933 C127.705354,12.2764644 126.487359,12.5760251 124.927482,12.5769665 L121.430657,12.5769665 L121.430657,5.08368201 L121.431161,5.08368201 L121.431161,5.08368201 Z M130.003104,23.5823849 C129.249968,24.2127615 128.118437,24.5217992 126.536676,24.5237448 L121.431098,24.5237448 L121.431161,17.5615481 L126.536739,17.5615481 C127.930878,17.5639331 129.047274,17.8115272 129.844997,18.3686611 C130.643224,18.9248536 131.072515,19.8090377 131.068227,20.922364 C131.068227,22.0125314 130.759077,22.9482427 130.003104,23.5823849 L130.003104,23.5823849 L130.003104,23.5823849 Z M16.2489138,14.4360251 L15.3485824,14.3405649 L16.1767031,14.0352929 C18.6767689,13.0854603 20.3558403,10.7373013 20.3558403,7.8665272 C20.3478309,3.00207113 16.3956055,0.119937238 10.1579913,0.0986610879 L-3.55271368e-15,0.0986610879 L-3.55271368e-15,29.5077615 L11.1471198,29.5077615 C17.8439181,29.4836611 21.9143294,26.4857322 21.9224019,21.2900209 C21.9271318,17.982113 19.4033532,14.9279498 16.2489138,14.4360251 L16.2489138,14.4360251 L16.2489138,14.4360251 Z M6.0414787,5.08368201 L9.53830392,5.08368201 C11.0269789,5.08462343 12.2302167,5.27410042 13.0982583,5.83029289 C13.9743724,6.38698745 14.4468635,7.33587866 14.436836,8.64577406 C14.4439624,9.93207113 14.0185186,10.9537657 13.1656759,11.6143933 C12.3156713,12.2764644 11.0976759,12.5760251 9.5377994,12.5769665 L6.04097417,12.5769665 L6.04103724,5.08368201 L6.0414787,5.08368201 L6.0414787,5.08368201 Z M14.6134841,23.5823849 C13.8603489,24.2127615 12.7288172,24.5217992 11.1470567,24.5237448 L6.0414787,24.5237448 L6.0414787,17.5615481 L11.1470567,17.5615481 C12.5411956,17.5639331 13.6575914,17.8115272 14.4553143,18.3686611 C15.2535418,18.9248536 15.6828326,19.8090377 15.6785441,20.922364 C15.6786072,22.0125314 15.3694572,22.9482427 14.6134841,23.5823849 L14.6134841,23.5823849 L14.6134841,23.5823849 Z M49.2030245,4.41169456 C46.5295901,1.73228033 42.7987266,0.110460251 38.6214814,0.105251046 L38.6143549,0.106192469 L38.5863536,0.105251046 C34.382053,0.106192469 30.6378195,1.7298954 27.9577632,4.41119247 C25.2801033,7.0901046 23.6617645,10.8256695 23.6560886,15.016318 L23.6579805,15.0309414 L23.6560886,15.0559833 C23.6579805,19.2660251 25.2772023,23.0176569 27.9596551,25.7022176 C30.639207,28.3891632 34.3834405,30.0114854 38.5915881,30.0133682 L38.5939846,30.0133682 L38.603003,30.0133682 C42.7888252,30.0114854 46.5277612,28.3887238 49.2026461,25.7022176 C51.878414,23.0143305 53.4976988,19.2640795 53.4976988,15.0493305 L53.4976988,15.0446234 L53.4976988,15.0337657 C53.4975726,10.83659 51.8783509,7.09393305 49.2030245,4.41169456 L49.2030245,4.41169456 L49.2030245,4.41169456 Z M47.5078081,15.0522803 C47.5078081,17.6300837 46.4802093,20.0580753 44.8472392,21.8344142 C43.2080255,23.6098117 40.9886038,24.7151046 38.5967595,24.7151046 C36.141786,24.7136611 33.9171298,23.6098117 32.2850426,21.8344142 C30.6596404,20.0599582 29.6481865,17.6329079 29.6458531,15.0522803 C29.6482496,15.0522803 29.6458531,15.0498954 29.6458531,15.0409205 C29.6653405,9.35748954 33.6512432,5.41537657 38.5967595,5.40313808 C43.4288199,5.41167364 47.4940597,9.36269874 47.5078081,15.0428033 L47.5078081,15.0522803 L47.5078081,15.0522803 L47.5078081,15.0522803 Z" id="Shape" fill="#000000" sketch:type="MSShapeGroup"></path>
    </g>
</svg>

<svg width="188" height="30" viewBox="0 0 188 30" xmlns="http://www.w3.org/2000/svg" xmlns:sketch="http://www.bohemiancoding.com/sketch/ns"><title>Slice 1</title><path d="M80.737 29.264v-29.033h-5.817v17.877l-16.072-17.889h-2.762v29.049h5.816v-17.77l15.945 17.767h2.89zm27.948-24.853c-2.667-2.675-6.391-4.297-10.564-4.306l-.009.004-.043-.004c-4.202.001-7.946 1.624-10.626 4.306-2.68 2.68-4.302 6.422-4.302 10.618v.022c0 4.212 1.617 7.963 4.3 10.651 2.682 2.688 6.429 4.311 10.631 4.311h.019c4.184-.002 7.921-1.625 10.593-4.314 2.678-2.682 4.297-6.435 4.3-10.648v-.019999999999999997c-.002-4.195-1.622-7.939-4.3-10.62zm-1.693 10.636c0 2.582-1.027 5.011-2.66 6.787-1.637 1.778-3.858 2.881-6.252 2.881-2.451-.001-4.677-1.105-6.307-2.881-1.631-1.774-2.64-4.205-2.641-6.789v-.002l.002-.002h-.002c.019-5.683 4.006-9.626 8.949-9.636v.226-.226c4.836.007 8.899 3.959 8.912 9.638v.004h-.001zm57.455-10.635c-2.673-2.679-6.404-4.301-10.582-4.306l-.007.001-.028-.001c-4.204.001-7.949 1.625-10.629 4.306-2.678 2.679-4.296 6.414-4.302 10.605l.002.015-.002.025c.002 4.21 1.621 7.962 4.304 10.646 2.68 2.687 6.424 4.309 10.632 4.311h.011c4.186-.002 7.925-1.625 10.6-4.311 2.676-2.688 4.295-6.438 4.295-10.653v-.016c0-4.197-1.619-7.94-4.295-10.622zm-1.695 10.641c0 2.578-1.028 5.006-2.661 6.782-1.639 1.775-3.859 2.881-6.25 2.881-2.455-.001-4.68-1.105-6.312-2.881-1.625-1.774-2.637-4.202-2.639-6.782v-.011c.019-5.683 4.005-9.626 8.951-9.638 4.832.009 8.897 3.96 8.911 9.64v.009zm20.067-1.558l.103-.203-.103.203-4.631-2.339c-.488-.24-1.13-.54-1.652-1.059-.506-.508-.92-1.198-.927-2.388.007-.982.359-1.571.902-1.988.56-.424 1.406-.663 2.384-.663h.011l.025-.002c1.724.002 3.455.557 4.592 1.604l.693.638 2.998-4.528-.675-.44c-2.609-1.722-4.494-2.324-7.439-2.328l-.189.001c-2.56 0-4.823.753-6.464 2.148-1.635 1.38-2.618 3.417-2.618 5.78v.054000000000000006c0 1.943.55 3.567 1.521 4.868.976 1.311 2.337 2.292 3.929 3.111l4.969 2.577c.792.392 1.941 1.641 1.963 3.026l-.003.078c-.004.997-.329 1.677-.868 2.152-.547.477-1.395.78-2.539.78-2.061-.019-3.317-.207-5.798-2.008l-.633-.465-3.255 4.189.646.49c3.264 2.496 5.95 2.985 8.536 2.988h.179c3.117 0 5.537-1.002 7.148-2.589 1.614-1.587 2.401-3.722 2.401-5.879v-.03c-.002-3.995-2.619-6.473-5.207-7.774zm-51.18.942l-.9-.095.828-.305c2.5-.95 4.179-3.298 4.179-6.169-.009-4.865-3.961-7.747-10.198-7.768h-10.158v29.409h11.147c6.697-.024 10.767-3.022 10.775-8.218.005-3.308-2.519-6.362-5.673-6.854zm-10.207-9.352h3.497c1.489.001 2.692.19 3.56.747.876.557 1.349 1.506 1.339 2.815.007 1.286-.418 2.308-1.271 2.969-.85.662-2.068.962-3.628.963h-3.497v-7.493h.001zm8.572 18.499c-.753.63-1.885.939-3.466.941h-5.106v-6.962h5.106c1.394.002 2.511.25 3.308.807.798.556 1.228 1.44 1.223 2.554 0 1.09-.309 2.026-1.065 2.66zm-113.754-9.146l-.9-.095.828-.305c2.5-.95 4.179-3.298 4.179-6.169-.008-4.864-3.96-7.747-10.198-7.768h-10.158v29.409h11.147c6.697-.024 10.767-3.022 10.775-8.218.005-3.308-2.519-6.362-5.673-6.854zm-10.207-9.352h3.497c1.489.001 2.692.19 3.56.747.876.557 1.349 1.506 1.339 2.815.007 1.286-.418 2.308-1.271 2.969-.85.662-2.068.962-3.628.963h-3.497v-7.493zm8.572 18.499c-.753.63-1.885.939-3.466.941h-5.106v-6.962h5.106c1.394.002 2.511.25 3.308.807.798.556 1.228 1.44 1.223 2.554 0 1.09-.309 2.026-1.065 2.66zm34.59-19.171c-2.673-2.679-6.404-4.301-10.582-4.306l-.007.001-.028-.001c-4.204.001-7.949 1.625-10.629 4.306-2.678 2.679-4.296 6.414-4.302 10.605l.002.015-.002.025c.002 4.21 1.621 7.962 4.304 10.646 2.68 2.687 6.424 4.309 10.632 4.311h.011c4.186-.002 7.925-1.625 10.6-4.311 2.676-2.688 4.295-6.438 4.295-10.653v-.016c0-4.197-1.619-7.94-4.295-10.622zm-1.695 10.641c0 2.578-1.028 5.006-2.661 6.782-1.639 1.775-3.859 2.881-6.25 2.881-2.455-.001-4.68-1.105-6.312-2.881-1.625-1.774-2.637-4.202-2.639-6.782v-.011c.019-5.683 4.005-9.626 8.951-9.638 4.832.009 8.897 3.96 8.911 9.64v.009z" fill="#000" sketch:type="MSShapeGroup"/></svg>
